X: 198
T: Peek-A-Boo Waltz
T: Waltz, D
C: Traditional
L: 1/16
M: 3/4
K: D
|: F2G2| A4f4e4| d4c4B4| A4^G4B4| A4F4G4| A4f4e4| d4c4d4| e4 e2d2 e2f2| e4F4G4| 
A4f4e4| d4c4B4| A4^G4B4| A4^G4A4| B4g4 g2f2| e4B4c4| d4 d2c2 d2e2| d4d4:| 
|: F2G2| A4A4f4| A4 A4 (3A2A2A2| B4B4g4| B4B4 B2B2| c4 c4 d2c2| B4 B4 c2B2| A4^G4B4| A4F4G4| 
A4A4f4| A4 A4 (3A2A2A2| B4B4g4| B4c4d4| c4B4A4| g4f4e4| d4 d2c2 d2e2| d4 d4:| 
D: Kinnon and Betty Beaton, Saturday Night Lively, KB20M98
